images/6603989.svg

<?xml version="1.0" encoding="UTF-8"?>
<svg xmlns="http://www.w3.org/2000/svg" xmlns:xlink="http://www.w3.org/1999/xlink" width="300pt" height="300pt" viewBox="0 0 300 300" version="1.1">
<defs>
<g>
<symbol overflow="visible" id="glyph0-0">
<path style="stroke:none;" d="M 0.546875 1.9375 L 0.546875 -7.75 L 6.046875 -7.75 L 6.046875 1.9375 Z M 1.171875 1.328125 L 5.4375 1.328125 L 5.4375 -7.140625 L 1.171875 -7.140625 Z M 1.171875 1.328125 "/>
</symbol>
<symbol overflow="visible" id="glyph0-1">
<path style="stroke:none;" d="M 4.328125 -7.28125 C 3.546875 -7.28125 2.921875 -6.984375 2.453125 -6.390625 C 1.992188 -5.804688 1.765625 -5.007812 1.765625 -4 C 1.765625 -2.988281 1.992188 -2.1875 2.453125 -1.59375 C 2.921875 -1.007812 3.546875 -0.71875 4.328125 -0.71875 C 5.117188 -0.71875 5.742188 -1.007812 6.203125 -1.59375 C 6.660156 -2.1875 6.890625 -2.988281 6.890625 -4 C 6.890625 -5.007812 6.660156 -5.804688 6.203125 -6.390625 C 5.742188 -6.984375 5.117188 -7.28125 4.328125 -7.28125 Z M 4.328125 -8.171875 C 5.453125 -8.171875 6.351562 -7.789062 7.03125 -7.03125 C 7.707031 -6.28125 8.046875 -5.269531 8.046875 -4 C 8.046875 -2.738281 7.707031 -1.726562 7.03125 -0.96875 C 6.351562 -0.21875 5.453125 0.15625 4.328125 0.15625 C 3.203125 0.15625 2.300781 -0.21875 1.625 -0.96875 C 0.957031 -1.71875 0.625 -2.726562 0.625 -4 C 0.625 -5.269531 0.957031 -6.28125 1.625 -7.03125 C 2.300781 -7.789062 3.203125 -8.171875 4.328125 -8.171875 Z M 4.328125 -8.171875 "/>
</symbol>
<symbol overflow="visible" id="glyph0-2">
<path style="stroke:none;" d="M 1.078125 -8.015625 L 2.171875 -8.015625 L 2.171875 -4.734375 L 6.109375 -4.734375 L 6.109375 -8.015625 L 7.1875 -8.015625 L 7.1875 0 L 6.109375 0 L 6.109375 -3.8125 L 2.171875 -3.8125 L 2.171875 0 L 1.078125 0 Z M 1.078125 -8.015625 "/>
</symbol>
<symbol overflow="visible" id="glyph0-3">
<path style="stroke:none;" d="M 1.078125 -8.015625 L 2.546875 -8.015625 L 6.09375 -1.3125 L 6.09375 -8.015625 L 7.15625 -8.015625 L 7.15625 0 L 5.6875 0 L 2.125 -6.703125 L 2.125 0 L 1.078125 0 Z M 1.078125 -8.015625 "/>
</symbol>
</g>
</defs>
<g id="surface52709">
<rect x="0" y="0" width="300" height="300" style="fill:rgb(100%,100%,100%);fill-opacity:1;stroke:none;"/>
<path style="fill:none;stroke-width:1.2;stroke-linecap:butt;stroke-linejoin:miter;stroke:rgb(0%,0%,0%);stroke-opacity:1;stroke-miterlimit:10;" d="M 157.785156 64.433594 L 135.4375 79.875 "/>
<path style=" stroke:none;fill-rule:nonzero;fill:rgb(0%,0%,0%);fill-opacity:1;" d="M 137.632812 106.949219 L 140.214844 79.488281 L 130.660156 80.261719 Z M 137.632812 106.949219 "/>
<path style="fill:none;stroke-width:1.2;stroke-linecap:butt;stroke-linejoin:miter;stroke:rgb(0%,0%,0%);stroke-opacity:1;stroke-miterlimit:10;" d="M 137.632812 106.949219 L 162.175781 118.585938 "/>
<path style="fill:none;stroke-width:1.2;stroke-linecap:butt;stroke-linejoin:miter;stroke:rgb(0%,0%,0%);stroke-opacity:1;stroke-miterlimit:10;" d="M 137.632812 106.949219 L 126.457031 114.667969 "/>
<path style="fill:none;stroke-width:1.2;stroke-linecap:butt;stroke-linejoin:miter;stroke:rgb(0%,0%,100%);stroke-opacity:1;stroke-miterlimit:10;" d="M 126.457031 114.667969 L 115.28125 122.386719 "/>
<path style="fill:none;stroke-width:1.2;stroke-linecap:butt;stroke-linejoin:miter;stroke:rgb(0%,0%,0%);stroke-opacity:1;stroke-miterlimit:10;" d="M 162.175781 118.585938 L 173.351562 110.863281 "/>
<path style="fill:none;stroke-width:1.2;stroke-linecap:butt;stroke-linejoin:miter;stroke:rgb(100%,0%,0%);stroke-opacity:1;stroke-miterlimit:10;" d="M 173.351562 110.863281 L 184.527344 103.144531 "/>
<path style=" stroke:none;fill-rule:nonzero;fill:rgb(100%,100%,100%);fill-opacity:1;" d="M 176.527344 96.644531 L 193.527344 96.644531 L 193.527344 109.644531 L 176.527344 109.644531 Z M 176.527344 96.644531 "/>
<g style="fill:rgb(100%,0%,0%);fill-opacity:1;">
  <use xlink:href="#glyph0-1" x="176.527344" y="106.545898"/>
  <use xlink:href="#glyph0-2" x="184.927734" y="106.545898"/>
</g>
<path style="fill:none;stroke-width:1.2;stroke-linecap:butt;stroke-linejoin:miter;stroke:rgb(0%,0%,100%);stroke-opacity:1;stroke-miterlimit:10;" d="M 115.28125 122.386719 L 116.378906 135.925781 "/>
<path style="fill:none;stroke-width:1.2;stroke-linecap:butt;stroke-linejoin:miter;stroke:rgb(0%,0%,0%);stroke-opacity:1;stroke-miterlimit:10;" d="M 116.378906 135.925781 L 117.480469 149.460938 "/>
<path style=" stroke:none;fill-rule:nonzero;fill:rgb(100%,100%,100%);fill-opacity:1;" d="M 107.28125 115.886719 L 124.28125 115.886719 L 124.28125 128.886719 L 107.28125 128.886719 Z M 107.28125 115.886719 "/>
<g style="fill:rgb(0%,0%,100%);fill-opacity:1;">
  <use xlink:href="#glyph0-3" x="107.28125" y="125.788086"/>
  <use xlink:href="#glyph0-2" x="115.264648" y="125.788086"/>
</g>
<path style="fill:none;stroke-width:1.2;stroke-linecap:butt;stroke-linejoin:miter;stroke:rgb(0%,0%,0%);stroke-opacity:1;stroke-miterlimit:10;" d="M 117.480469 149.460938 L 106.304688 157.183594 "/>
<path style="fill:none;stroke-width:1.2;stroke-linecap:butt;stroke-linejoin:miter;stroke:rgb(0%,0%,100%);stroke-opacity:1;stroke-miterlimit:10;" d="M 106.304688 157.183594 L 95.128906 164.902344 "/>
<path style="fill:none;stroke-width:1.2;stroke-linecap:butt;stroke-linejoin:miter;stroke:rgb(0%,0%,0%);stroke-opacity:1;stroke-miterlimit:10;" d="M 118.875 156.265625 L 109.9375 162.441406 "/>
<path style="fill:none;stroke-width:1.2;stroke-linecap:butt;stroke-linejoin:miter;stroke:rgb(0%,0%,100%);stroke-opacity:1;stroke-miterlimit:10;" d="M 109.9375 162.441406 L 100.996094 168.617188 "/>
<path style="fill:none;stroke-width:1.2;stroke-linecap:butt;stroke-linejoin:miter;stroke:rgb(0%,0%,100%);stroke-opacity:1;stroke-miterlimit:10;" d="M 142.023438 161.097656 L 129.75 155.28125 "/>
<path style="fill:none;stroke-width:1.2;stroke-linecap:butt;stroke-linejoin:miter;stroke:rgb(0%,0%,0%);stroke-opacity:1;stroke-miterlimit:10;" d="M 129.75 155.28125 L 117.480469 149.460938 "/>
<path style="fill:none;stroke-width:1.2;stroke-linecap:butt;stroke-linejoin:miter;stroke:rgb(0%,0%,100%);stroke-opacity:1;stroke-miterlimit:10;" d="M 95.128906 164.902344 L 96.226562 178.4375 "/>
<path style="fill:none;stroke-width:1.2;stroke-linecap:butt;stroke-linejoin:miter;stroke:rgb(0%,0%,0%);stroke-opacity:1;stroke-miterlimit:10;" d="M 96.226562 178.4375 L 97.324219 191.976562 "/>
<path style=" stroke:none;fill-rule:nonzero;fill:rgb(100%,100%,100%);fill-opacity:1;" d="M 91.128906 158.402344 L 99.128906 158.402344 L 99.128906 171.402344 L 91.128906 171.402344 Z M 91.128906 158.402344 "/>
<g style="fill:rgb(0%,0%,100%);fill-opacity:1;">
  <use xlink:href="#glyph0-3" x="91.128906" y="168.303711"/>
</g>
<path style="fill:none;stroke-width:1.2;stroke-linecap:butt;stroke-linejoin:miter;stroke:rgb(0%,0%,0%);stroke-opacity:1;stroke-miterlimit:10;" d="M 97.324219 191.976562 L 121.871094 203.613281 "/>
<path style="fill:none;stroke-width:1.2;stroke-linecap:butt;stroke-linejoin:miter;stroke:rgb(0%,0%,0%);stroke-opacity:1;stroke-miterlimit:10;" d="M 97.042969 198.914062 L 116.679688 208.222656 "/>
<path style="fill:none;stroke-width:1.2;stroke-linecap:butt;stroke-linejoin:miter;stroke:rgb(0%,0%,100%);stroke-opacity:1;stroke-miterlimit:10;" d="M 78.675781 211.722656 L 88 201.851562 "/>
<path style="fill:none;stroke-width:1.2;stroke-linecap:butt;stroke-linejoin:miter;stroke:rgb(0%,0%,0%);stroke-opacity:1;stroke-miterlimit:10;" d="M 88 201.851562 L 97.324219 191.976562 "/>
<path style="fill:none;stroke-width:1.2;stroke-linecap:butt;stroke-linejoin:miter;stroke:rgb(0%,0%,0%);stroke-opacity:1;stroke-miterlimit:10;" d="M 121.871094 203.613281 L 144.21875 188.171875 "/>
<path style="fill:none;stroke-width:1.2;stroke-linecap:butt;stroke-linejoin:miter;stroke:rgb(0%,0%,0%);stroke-opacity:1;stroke-miterlimit:10;" d="M 121.871094 203.613281 L 120.128906 217.082031 "/>
<path style="fill:none;stroke-width:1.2;stroke-linecap:butt;stroke-linejoin:miter;stroke:rgb(0%,0%,100%);stroke-opacity:1;stroke-miterlimit:10;" d="M 120.128906 217.082031 L 118.390625 230.550781 "/>
<path style="fill:none;stroke-width:1.2;stroke-linecap:butt;stroke-linejoin:miter;stroke:rgb(0%,0%,0%);stroke-opacity:1;stroke-miterlimit:10;" d="M 144.21875 188.171875 L 143.121094 174.636719 "/>
<path style="fill:none;stroke-width:1.2;stroke-linecap:butt;stroke-linejoin:miter;stroke:rgb(0%,0%,100%);stroke-opacity:1;stroke-miterlimit:10;" d="M 143.121094 174.636719 L 142.023438 161.097656 "/>
<path style="fill:none;stroke-width:1.2;stroke-linecap:butt;stroke-linejoin:miter;stroke:rgb(0%,0%,0%);stroke-opacity:1;stroke-miterlimit:10;" d="M 137.628906 185.980469 L 136.75 175.152344 "/>
<path style="fill:none;stroke-width:1.2;stroke-linecap:butt;stroke-linejoin:miter;stroke:rgb(0%,0%,100%);stroke-opacity:1;stroke-miterlimit:10;" d="M 136.75 175.152344 L 135.871094 164.320312 "/>
<path style="fill:none;stroke-width:1.2;stroke-linecap:butt;stroke-linejoin:miter;stroke:rgb(0%,0%,0%);stroke-opacity:1;stroke-miterlimit:10;" d="M 144.21875 188.171875 L 156.492188 193.992188 "/>
<path style="fill:none;stroke-width:1.2;stroke-linecap:butt;stroke-linejoin:miter;stroke:rgb(0%,0%,100%);stroke-opacity:1;stroke-miterlimit:10;" d="M 156.492188 193.992188 L 168.765625 199.808594 "/>
<path style=" stroke:none;fill-rule:nonzero;fill:rgb(100%,100%,100%);fill-opacity:1;" d="M 138.023438 154.597656 L 146.023438 154.597656 L 146.023438 167.597656 L 138.023438 167.597656 Z M 138.023438 154.597656 "/>
<g style="fill:rgb(0%,0%,100%);fill-opacity:1;">
  <use xlink:href="#glyph0-3" x="138.023438" y="164.499023"/>
</g>
<path style="fill:none;stroke-width:1.2;stroke-linecap:butt;stroke-linejoin:miter;stroke:rgb(0%,0%,100%);stroke-opacity:1;stroke-miterlimit:10;" d="M 168.765625 199.808594 L 179.941406 192.089844 "/>
<path style="fill:none;stroke-width:1.2;stroke-linecap:butt;stroke-linejoin:miter;stroke:rgb(0%,0%,0%);stroke-opacity:1;stroke-miterlimit:10;" d="M 179.941406 192.089844 L 191.113281 184.371094 "/>
<path style=" stroke:none;fill-rule:nonzero;fill:rgb(100%,100%,100%);fill-opacity:1;" d="M 160.765625 193.308594 L 177.765625 193.308594 L 177.765625 206.308594 L 160.765625 206.308594 Z M 160.765625 193.308594 "/>
<g style="fill:rgb(0%,0%,100%);fill-opacity:1;">
  <use xlink:href="#glyph0-3" x="160.765625" y="203.209961"/>
  <use xlink:href="#glyph0-2" x="168.749023" y="203.209961"/>
</g>
<path style="fill:none;stroke-width:1.2;stroke-linecap:butt;stroke-linejoin:miter;stroke:rgb(0%,0%,0%);stroke-opacity:1;stroke-miterlimit:10;" d="M 191.113281 184.371094 L 215.660156 196.003906 "/>
<path style="fill:none;stroke-width:1.2;stroke-linecap:butt;stroke-linejoin:miter;stroke:rgb(0%,0%,0%);stroke-opacity:1;stroke-miterlimit:10;" d="M 215.660156 196.003906 L 217.855469 223.078125 "/>
<path style="fill:none;stroke-width:1.2;stroke-linecap:butt;stroke-linejoin:miter;stroke:rgb(0%,0%,0%);stroke-opacity:1;stroke-miterlimit:10;" d="M 222.25 198.195312 L 224.007812 219.855469 "/>
<path style="fill:none;stroke-width:1.2;stroke-linecap:butt;stroke-linejoin:miter;stroke:rgb(0%,0%,0%);stroke-opacity:1;stroke-miterlimit:10;" d="M 238.007812 180.566406 L 215.660156 196.003906 "/>
<path style="fill:none;stroke-width:1.2;stroke-linecap:butt;stroke-linejoin:miter;stroke:rgb(0%,0%,0%);stroke-opacity:1;stroke-miterlimit:10;" d="M 217.855469 223.078125 L 242.402344 234.714844 "/>
<path style="fill:none;stroke-width:1.2;stroke-linecap:butt;stroke-linejoin:miter;stroke:rgb(0%,0%,0%);stroke-opacity:1;stroke-miterlimit:10;" d="M 242.402344 234.714844 L 264.75 219.277344 "/>
<path style="fill:none;stroke-width:1.2;stroke-linecap:butt;stroke-linejoin:miter;stroke:rgb(0%,0%,0%);stroke-opacity:1;stroke-miterlimit:10;" d="M 241.003906 227.914062 L 258.882812 215.5625 "/>
<path style="fill:none;stroke-width:1.2;stroke-linecap:butt;stroke-linejoin:miter;stroke:rgb(0%,0%,0%);stroke-opacity:1;stroke-miterlimit:10;" d="M 264.75 219.277344 L 262.554688 192.203125 "/>
<path style="fill:none;stroke-width:1.2;stroke-linecap:butt;stroke-linejoin:miter;stroke:rgb(0%,0%,0%);stroke-opacity:1;stroke-miterlimit:10;" d="M 262.554688 192.203125 L 238.007812 180.566406 "/>
<path style="fill:none;stroke-width:1.2;stroke-linecap:butt;stroke-linejoin:miter;stroke:rgb(0%,0%,0%);stroke-opacity:1;stroke-miterlimit:10;" d="M 257.363281 196.8125 L 237.726562 187.503906 "/>
<path style="fill:none;stroke-width:1.2;stroke-linecap:butt;stroke-linejoin:miter;stroke:rgb(0%,0%,100%);stroke-opacity:1;stroke-miterlimit:10;" d="M 118.390625 230.550781 L 105.039062 233.058594 "/>
<path style="fill:none;stroke-width:1.2;stroke-linecap:butt;stroke-linejoin:miter;stroke:rgb(0%,0%,0%);stroke-opacity:1;stroke-miterlimit:10;" d="M 105.039062 233.058594 L 91.691406 235.566406 "/>
<path style="fill:none;stroke-width:1.2;stroke-linecap:butt;stroke-linejoin:miter;stroke:rgb(0%,0%,100%);stroke-opacity:1;stroke-miterlimit:10;" d="M 114.539062 224.769531 L 103.859375 226.777344 "/>
<path style="fill:none;stroke-width:1.2;stroke-linecap:butt;stroke-linejoin:miter;stroke:rgb(0%,0%,0%);stroke-opacity:1;stroke-miterlimit:10;" d="M 103.859375 226.777344 L 93.183594 228.78125 "/>
<path style=" stroke:none;fill-rule:nonzero;fill:rgb(100%,100%,100%);fill-opacity:1;" d="M 114.390625 224.050781 L 122.390625 224.050781 L 122.390625 237.050781 L 114.390625 237.050781 Z M 114.390625 224.050781 "/>
<g style="fill:rgb(0%,0%,100%);fill-opacity:1;">
  <use xlink:href="#glyph0-3" x="114.390625" y="233.952148"/>
</g>
<path style="fill:none;stroke-width:1.2;stroke-linecap:butt;stroke-linejoin:miter;stroke:rgb(0%,0%,0%);stroke-opacity:1;stroke-miterlimit:10;" d="M 91.691406 235.566406 L 85.183594 223.644531 "/>
<path style="fill:none;stroke-width:1.2;stroke-linecap:butt;stroke-linejoin:miter;stroke:rgb(0%,0%,100%);stroke-opacity:1;stroke-miterlimit:10;" d="M 85.183594 223.644531 L 78.675781 211.722656 "/>
<path style="fill:none;stroke-width:1.2;stroke-linecap:butt;stroke-linejoin:miter;stroke:rgb(0%,0%,100%);stroke-opacity:1;stroke-miterlimit:10;" d="M 78.675781 211.722656 L 65.203125 209.984375 "/>
<path style="fill:none;stroke-width:1.2;stroke-linecap:butt;stroke-linejoin:miter;stroke:rgb(0%,0%,0%);stroke-opacity:1;stroke-miterlimit:10;" d="M 65.203125 209.984375 L 51.734375 208.242188 "/>
<path style=" stroke:none;fill-rule:nonzero;fill:rgb(100%,100%,100%);fill-opacity:1;" d="M 74.675781 205.222656 L 82.675781 205.222656 L 82.675781 218.222656 L 74.675781 218.222656 Z M 74.675781 205.222656 "/>
<g style="fill:rgb(0%,0%,100%);fill-opacity:1;">
  <use xlink:href="#glyph0-3" x="74.675781" y="215.124023"/>
</g>
<path style="fill:none;stroke-width:1.2;stroke-linecap:butt;stroke-linejoin:miter;stroke:rgb(0%,0%,0%);stroke-opacity:1;stroke-miterlimit:10;" d="M 51.734375 208.242188 L 35.25 229.832031 "/>
<path style="fill:none;stroke-width:1.2;stroke-linecap:butt;stroke-linejoin:miter;stroke:rgb(0%,0%,0%);stroke-opacity:1;stroke-miterlimit:10;" d="M 51.734375 208.242188 L 41.28125 183.171875 "/>
</g>
</svg>

<svg xmlns="http://www.w3.org/2000/svg" xmlns:xlink="http://www.w3.org/1999/xlink" width="300pt" height="300pt" viewBox="0 0 300 300"><defs><symbol overflow="visible"><path d="M.547 1.938V-7.75h5.5v9.688zm.625-.61h4.266v-8.47H1.171zm0 0"/></symbol><symbol overflow="visible" id="a"><path d="M4.328-7.28c-.78 0-1.406.296-1.875.89-.46.585-.687 1.382-.687 2.39 0 1.012.226 1.813.687 2.406.47.586 1.094.875 1.875.875.79 0 1.414-.288 1.875-.874.457-.593.688-1.394.688-2.406 0-1.008-.23-1.805-.687-2.39-.46-.594-1.086-.89-1.875-.89zm0-.892c1.125 0 2.024.383 2.703 1.14C7.708-6.28 8.048-5.27 8.048-4c0 1.262-.34 2.273-1.016 3.03C6.353-.22 5.454.157 4.33.157S2.3-.22 1.625-.97c-.668-.75-1-1.757-1-3.03 0-1.27.332-2.28 1-3.03.676-.76 1.578-1.142 2.703-1.142zm0 0"/></symbol><symbol overflow="visible" id="b"><path d="M1.078-8.016h1.094v3.282H6.11v-3.282h1.077V0H6.11v-3.813H2.17V0H1.078zm0 0"/></symbol><symbol overflow="visible" id="c"><path d="M1.078-8.016h1.47l3.546 6.704v-6.704h1.062V0H5.688L2.124-6.703V0H1.078zm0 0"/></symbol></defs><g><path fill="#fff" d="M0 0h300v300H0z"/><path d="M157.785 64.434l-22.347 15.44" stroke-width="1.2" stroke="#000" stroke-miterlimit="10" fill="none"/><path d="M137.633 106.95l2.582-27.462-9.555.774zm0 0"/><path d="M137.633 106.95l24.543 11.636M137.633 106.95l-11.176 7.718" stroke-width="1.2" stroke="#000" stroke-miterlimit="10" fill="none"/><path d="M126.457 114.668l-11.176 7.72" stroke-width="1.2" stroke="#00f" stroke-miterlimit="10" fill="none"/><path d="M162.176 118.586l11.176-7.723" stroke-width="1.2" stroke="#000" stroke-miterlimit="10" fill="none"/><path d="M173.352 110.863l11.175-7.718" stroke-width="1.2" stroke="#f00" stroke-miterlimit="10" fill="none"/><path d="M176.527 96.645h17v13h-17zm0 0" fill="#fff"/><g fill="#f00"><use xlink:href="#a" x="176.527" y="106.546"/><use xlink:href="#b" x="184.928" y="106.546"/></g><path d="M115.28 122.387l1.1 13.54" stroke-width="1.2" stroke="#00f" stroke-miterlimit="10" fill="none"/><path d="M116.38 135.926l1.1 13.535" stroke-width="1.2" stroke="#000" stroke-miterlimit="10" fill="none"/><path d="M107.28 115.887h17v13h-17zm0 0" fill="#fff"/><g fill="#00f"><use xlink:href="#c" x="107.281" y="125.788"/><use xlink:href="#b" x="115.265" y="125.788"/></g><path d="M117.48 149.46l-11.175 7.724" stroke-width="1.2" stroke="#000" stroke-miterlimit="10" fill="none"/><path d="M106.305 157.184l-11.176 7.718" stroke-width="1.2" stroke="#00f" stroke-miterlimit="10" fill="none"/><path d="M118.875 156.266l-8.938 6.175" stroke-width="1.2" stroke="#000" stroke-miterlimit="10" fill="none"/><path d="M109.938 162.44l-8.942 6.177M142.023 161.098l-12.273-5.817" stroke-width="1.2" stroke="#00f" stroke-miterlimit="10" fill="none"/><path d="M129.75 155.28l-12.27-5.82" stroke-width="1.2" stroke="#000" stroke-miterlimit="10" fill="none"/><path d="M95.13 164.902l1.097 13.536" stroke-width="1.2" stroke="#00f" stroke-miterlimit="10" fill="none"/><path d="M96.227 178.438l1.097 13.54" stroke-width="1.2" stroke="#000" stroke-miterlimit="10" fill="none"/><path d="M91.13 158.402h8v13h-8zm0 0" fill="#fff"/><use xlink:href="#c" x="91.129" y="168.304" fill="#00f"/><path d="M97.324 191.977l24.547 11.636M97.043 198.914l19.637 9.31" stroke-width="1.2" stroke="#000" stroke-miterlimit="10" fill="none"/><path d="M78.676 211.723l9.324-9.87" stroke-width="1.2" stroke="#00f" stroke-miterlimit="10" fill="none"/><path d="M88 201.852l9.324-9.875M121.87 203.613l22.35-15.44M121.87 203.613l-1.74 13.47" stroke-width="1.2" stroke="#000" stroke-miterlimit="10" fill="none"/><path d="M120.13 217.082l-1.74 13.47" stroke-width="1.2" stroke="#00f" stroke-miterlimit="10" fill="none"/><path d="M144.22 188.172l-1.1-13.535" stroke-width="1.2" stroke="#000" stroke-miterlimit="10" fill="none"/><path d="M143.12 174.637l-1.097-13.54" stroke-width="1.2" stroke="#00f" stroke-miterlimit="10" fill="none"/><path d="M137.63 185.98l-.88-10.828" stroke-width="1.2" stroke="#000" stroke-miterlimit="10" fill="none"/><path d="M136.75 175.152l-.88-10.832" stroke-width="1.2" stroke="#00f" stroke-miterlimit="10" fill="none"/><path d="M144.22 188.172l12.272 5.82" stroke-width="1.2" stroke="#000" stroke-miterlimit="10" fill="none"/><path d="M156.492 193.992l12.274 5.817" stroke-width="1.2" stroke="#00f" stroke-miterlimit="10" fill="none"/><path d="M138.023 154.598h8v13h-8zm0 0" fill="#fff"/><use xlink:href="#c" x="138.023" y="164.499" fill="#00f"/><path d="M168.766 199.81l11.175-7.72" stroke-width="1.2" stroke="#00f" stroke-miterlimit="10" fill="none"/><path d="M179.94 192.09l11.173-7.72" stroke-width="1.2" stroke="#000" stroke-miterlimit="10" fill="none"/><path d="M160.766 193.31h17v13h-17zm0 0" fill="#fff"/><g fill="#00f"><use xlink:href="#c" x="160.766" y="203.21"/><use xlink:href="#b" x="168.749" y="203.21"/></g><path d="M191.113 184.37l24.547 11.634M215.66 196.004l2.195 27.074M222.25 198.195l1.758 21.66M238.008 180.566l-22.348 15.438M217.855 223.078l24.547 11.637M242.402 234.715l22.348-15.438M241.004 227.914l17.88-12.35M264.75 219.277l-2.195-27.074M262.555 192.203l-24.547-11.637M257.363 196.813l-19.636-9.31" stroke-width="1.2" stroke="#000" stroke-miterlimit="10" fill="none"/><path d="M118.39 230.55l-13.35 2.51" stroke-width="1.2" stroke="#00f" stroke-miterlimit="10" fill="none"/><path d="M105.04 233.06l-13.35 2.506" stroke-width="1.2" stroke="#000" stroke-miterlimit="10" fill="none"/><path d="M114.54 224.77l-10.68 2.007" stroke-width="1.2" stroke="#00f" stroke-miterlimit="10" fill="none"/><path d="M103.86 226.777l-10.676 2.004" stroke-width="1.2" stroke="#000" stroke-miterlimit="10" fill="none"/><path d="M114.39 224.05h8v13h-8zm0 0" fill="#fff"/><use xlink:href="#c" x="114.391" y="233.952" fill="#00f"/><path d="M91.69 235.566l-6.506-11.92" stroke-width="1.2" stroke="#000" stroke-miterlimit="10" fill="none"/><path d="M85.184 223.645l-6.508-11.922M78.676 211.723l-13.473-1.74" stroke-width="1.2" stroke="#00f" stroke-miterlimit="10" fill="none"/><path d="M65.203 209.984l-13.47-1.742" stroke-width="1.2" stroke="#000" stroke-miterlimit="10" fill="none"/><path d="M74.676 205.223h8v13h-8zm0 0" fill="#fff"/><use xlink:href="#c" x="74.676" y="215.124" fill="#00f"/><path d="M51.734 208.242l-16.484 21.59M51.734 208.242l-10.453-25.07" stroke-width="1.2" stroke="#000" stroke-miterlimit="10" fill="none"/></g></svg>
